X:1
T: Mamie's Jig
C: Murray Schoolbraid
R:Jig
Q:180
K:D
M:6/8
L:1/16
fe|d2c2d2 A4d2|e6A4e2|f2e2f2 g4e2|d6c4e2|d2c2d2 A4d2|e6A4g2|g2f2e2 A2d2c2|d6-d2f2e2|
d2c2d2 A4d2|e6A4e2|f2e2f2 g4e2|d6c4e2|d2c2d2 A4d2|e6A4g2|g2f2e2 A2d2c2|d6-d4c2|
d4c2 B2c2d2|e4c2 A6|B2c2d2 d2c2B2|c4^A2 F4c2|d4c2 B2c2d2|e4c2 A4A2|B2^A2B2 E4^G2|A6 d4c2|
B2G2B2 d4B2|A6F4A2|G2F2G2 E2F2G2|F6D4d2|e4A2 g2f2e2|d2c2d2 A2G2F2|G2A2B2 A2d2c2|d6-d4||
